X: 01019
T: CATHY'S WEDDING
C: Bob McQuillen
B: Bob's Note Book 1 #19
%R: jig
Z: 2019 John Chambers <jc:trillian.mit.edu>
M: 6/8
L: 1/8
K: D
FG \
| ABA ABA | Ade fed | Bcd AGF | FED EFG |\
| ABA ABA | Ade fed | Agg fed | cBc d2 :|
|: cd \
| efe dcB | ABA GFE | aba gfe | fef dcd |\
| BGB dcB | ABc d2e | fef gec | ABc d2 :|
%%begintext align
%% With Best Wishes and Love
%% always to Cathy + Earl Morse
%%endtext

%%sep 1 1 500

%%sep 1 1 500

